src/24/actions/align-horizontal-center.svg

<svg xmlns="http://www.w3.org/2000/svg" viewBox="0 0 24 24"><path d="M11.5 4v1H9v5h2.5v4H6v5h5.5v1h1v-1H18v-5h-5.5v-4H15V5h-2.5V4h-1zM10 6h4v3h-4V6zm-3 9h10v3H7v-3z" fill="currentColor" color="#5d656b"/></svg>

<svg xmlns="http://www.w3.org/2000/svg" viewBox="0 0 24 24">
  <defs id="defs3051">
    <style type="text/css" id="current-color-scheme">
      .ColorScheme-Text {
        color:#5d656b;
      }
      </style>
  </defs>
 <path style="fill:currentColor;fill-opacity:1;stroke:none" 
     d="M 11.5 4 L 11.5 5 L 9 5 L 9 6 L 9 9 L 9 10 L 11.5 10 L 11.5 14 L 6 14 L 6 15 L 6 19 L 7 19 L 11.5 19 L 11.5 20 L 12.5 20 L 12.5 19 L 18 19 L 18 18 L 18 15 L 18 14 L 12.5 14 L 12.5 10 L 14 10 L 15 10 L 15 9 L 15 6 L 15 5 L 14 5 L 12.5 5 L 12.5 4 L 11.5 4 z M 10 6 L 14 6 L 14 9 L 10 9 L 10 6 z M 7 15 L 17 15 L 17 18 L 7 18 L 7 15 z "
     class="ColorScheme-Text"
     />
</svg>
